X: 2
T: Coen's Memories
R: reel
M: 4/4
L: 1/8
K: Edor
F|EDB,A, B,EFA|B2eB dBAF|DEFD E2DB,|A,B,DF EDB,A,|B,E~E2 DEFA|Be (3eee dBAF|DEFA dBAF|EGFD ~E3:||:A|Be~e2 fedB|egfe dBAF|~A3B d2fd|edef d2BA|Be~e2 fedB|egfe dBAF|DEFA dBAF|EGFD ~E3:|


Tune 558	Setting 558

